X:1
T:Title
%%score { ( 1 3 ) | ( 2 4 ) }
L:1/8
M:6/8
K:G
V:1 treble nm="Grand Piano"
V:3 treble 
V:2 bass 
V:4 bass 
V:1
 z3 z2[Q:1/4=84] D | B>BB AGF | G3- G2 G | A>AA FED |[M:5/8] B-B- B3 |[M:1/8] D | %6
[M:3/4] B>B BA GF | G4- GB | A>A AA B^c |[M:15/16] [Fd]3/2-[Fd]3/2-[Fd]3/2- [Fd]3 | %10
[M:3/4] d>e dd cB | [Fc]6 | [Fc]>d c[Fc] BA |[M:5/8] [DB]-[DB]- [DB]3 |[M:1/8] B | %15
[M:3/4] B>B B[EA] [G,EG][G,CE] | [G,B,D]3 [B,DG]2 [B,DG] | [FA]>[FA] [FA][DA] [DG][FA] | %18
[M:5/8] B-B- B3 |[M:1/8] B/c/ |[M:3/4] d>d dB AG | [CEG]3 [Ec]3 | %22
 [DGB]>[DAc] [DGB][CDA] [B,DG][A,DF] |[M:5/8] [B,DG]-[B,DG]- [B,DG]3 |] %24
V:2
 z3 z2 D, | [G,D]>[G,D][G,D] [D,CD][D,B,D][D,A,D] | [G,B,D]3- [G,B,D]2 [G,B,D] | %3
 [D,CD]>[D,CD][D,CD] [D,A,D][D,G,D][D,F,] |[M:5/8] [G,D]-[G,D]- [G,D]3 |[M:1/8] D, | %6
[M:3/4] [G,D]>[G,D] [G,D][D,CD] [D,B,D][C,A,D] | [G,B,D]4- [G,B,D][G,DG] | %8
 [A,DF]>[A,DF] [A,DF][A,^CG] [A,B,G][A,G] |[M:15/16][K:bass] A,3 z3/2 z3 | %10
[M:3/4][K:treble] [B,G]>[CG] [B,G][B,G] [A,G][G,G] | A,2 A,4 | %12
 D,->[D,-B,F] [D,A,F]D,- [D,G,D][D,F,D] |[M:5/8] G,3 z2 |[M:1/8] [G,D] | %15
[M:3/4] [G,D]>[G,D] [G,D][C,G,] C,C, | G,,3 G,,2 G, | [D,D]>[D,D] [D,D][D,C] [D,B,][D,D] | %18
[M:5/8][K:treble] [G,DG]-[G,DG]- [G,DG]3 |[M:1/8] [G,G]/[G,A,G]/ | %20
[M:3/4] [G,B,G]>[G,B,G] [G,B,G][G,DG][K:bass] [G,CD][G,B,E] | C,3 A,,3 | D,>D, D,D, D,D, | %23
[M:5/8] G,,-G,,- G,,3 |] %24
V:3
 x6 | x6 | x6 | x6 |[M:5/8] x5 |[M:1/8] x |[M:3/4] x6 | x6 | x6 |[M:15/16] z3 C3/2- C3 | %10
[M:3/4] x6 | x6 | x6 |[M:5/8] z B,,D, G,2 |[M:1/8] x |[M:3/4] x6 | x6 | x6 |[M:5/8] x5 |[M:1/8] x | %20
[M:3/4] x6 | x6 | x6 |[M:5/8] x5 |] %24
V:4
 x6 | x6 | x6 | x6 |[M:5/8] x5 |[M:1/8] x |[M:3/4] x6 | x6 | x6 | %9
[M:15/16][K:bass] D,3/2-D,3/2-D,3/2- D,3 |[M:3/4][K:treble] G,3 .G,3 | D,F, z D,3 | A,2 z A, z2 | %13
[M:5/8] G,, z z z2 |[M:1/8] x |[M:3/4] x6 | x6 | x6 |[M:5/8][K:treble] x5 |[M:1/8] x | %20
[M:3/4] x4[K:bass] x2 | x6 | x6 |[M:5/8] x5 |] %24

